packages/kaspersky-hexa-ui-icons/src/iconsSVGs/64x42/FlagNp.svg

<svg width="64" height="42" viewBox="0 0 64 42" fill="none" xmlns="http://www.w3.org/2000/svg">
<path fill-rule="evenodd" clip-rule="evenodd" d="M0 4.2C0 1.88041 1.8804 -2.23605e-09 4.2 0L5.17611 9.59026e-10C5.45251 1.22698e-09 5.72272 0.0818133 5.95269 0.23513L31.5054 17.2703C33.8105 18.807 32.7226 22.4 29.9522 22.4H16.8L33.5918 37.0928C35.5375 38.7953 34.3334 42 31.7479 42H4.2C1.88041 42 0 40.1196 0 37.8V4.2Z" fill="white"/>
<mask id="path-3-inside-1_37941_2320" fill="white">
<path fill-rule="evenodd" clip-rule="evenodd" d="M0 0H5.17611C5.45251 0 5.72272 0.0818133 5.95269 0.23513L31.5054 17.2703C33.8105 18.807 32.7226 22.4 29.9522 22.4H16.8L33.5918 37.0928C35.5375 38.7953 34.3334 42 31.7479 42H0V0Z"/>
</mask>
<path fill-rule="evenodd" clip-rule="evenodd" d="M0 0H5.17611C5.45251 0 5.72272 0.0818133 5.95269 0.23513L31.5054 17.2703C33.8105 18.807 32.7226 22.4 29.9522 22.4H16.8L33.5918 37.0928C35.5375 38.7953 34.3334 42 31.7479 42H0V0Z" fill="#EE1B44" stroke="#0543A8" stroke-width="5.6" stroke-linejoin="round" mask="url(#path-3-inside-1_37941_2320)"/>
<path fill-rule="evenodd" clip-rule="evenodd" d="M14.3876 16.3819C15.1941 16.1608 15.9377 15.8585 16.5953 15.4903C15.943 17.8598 13.7726 19.6004 11.1957 19.6004C8.61874 19.6004 6.44831 17.8597 5.79602 15.49C6.45553 15.8594 7.20144 16.1624 8.01063 16.3836L9.10009 15.4001L7.31979 13.7928L9.71516 13.9151L9.59281 11.5198L11.2001 13.3001L12.8074 11.5198L12.685 13.9151L15.0804 13.7928L13.3001 15.4001L14.3876 16.3819ZM9.05702 35.9741L11.2 33.6004L13.3431 35.9741L13.1799 32.7803L16.3738 32.9434L14 30.8004L16.3738 28.6573L13.1799 28.8205L13.3431 25.6266L11.2 28.0004L9.05702 25.6266L9.22015 28.8205L6.02632 28.6573L8.40005 30.8004L6.02632 32.9434L9.22015 32.7803L9.05702 35.9741Z" fill="white"/>
</svg>

<svg xmlns="http://www.w3.org/2000/svg" width="64" height="42" fill="none" viewBox="0 0 64 42"><path fill="#fff" fill-rule="evenodd" d="M0 4.2C0 1.8804 1.8804 0 4.2 0h.9761a1.4 1.4 0 0 1 .7766.2351l25.5527 17.0352C33.8105 18.807 32.7226 22.4 29.9522 22.4H16.8l16.7918 14.6928C35.5375 38.7953 34.3334 42 31.7479 42H4.2C1.8804 42 0 40.1196 0 37.8z" clip-rule="evenodd"/><mask id="a" fill="#fff"><path fill-rule="evenodd" d="M0 0h5.1761a1.4 1.4 0 0 1 .7766.2351l25.5527 17.0352C33.8105 18.807 32.7226 22.4 29.9522 22.4H16.8l16.7918 14.6928C35.5375 38.7953 34.3334 42 31.7479 42H0z" clip-rule="evenodd"/></mask><path fill="#ee1b44" fill-rule="evenodd" stroke="#0543a8" stroke-linejoin="round" stroke-width="6" d="M0 0h5.1761a1.4 1.4 0 0 1 .7766.2351l25.5527 17.0352C33.8105 18.807 32.7226 22.4 29.9522 22.4H16.8l16.7918 14.6928C35.5375 38.7953 34.3334 42 31.7479 42H0z" clip-rule="evenodd" mask="url(#a)"/><path fill="#fff" fill-rule="evenodd" d="M14.3876 16.3819c.8065-.2211 1.5501-.5234 2.2077-.8916-.6523 2.3695-2.8227 4.1101-5.3996 4.1101S6.4483 17.8597 5.796 15.49c.6595.3694 1.4054.6724 2.2146.8936l1.0895-.9835-1.7803-1.6073 2.3954.1223-.1224-2.3953 1.6073 1.7803 1.6073-1.7803-.1224 2.3953 2.3954-.1223-1.7803 1.6073zM9.057 35.9741l2.143-2.3737 2.1431 2.3737-.1632-3.1938 3.1939.1631L14 30.8004l2.3738-2.1431-3.1939.1632.1632-3.1939L11.2 28.0004l-2.143-2.3738.1631 3.1939-3.1938-.1632 2.3738 2.1431-2.3738 2.143 3.1939-.1631z" clip-rule="evenodd"/></svg>
